!!!COM: Mozart, Wolfgang Amadeus
!!!OTL: Musikalische Würfelspiele, Kontre-Tänze
!!!SCA: K<sup>6</sup> Anh. C30.01 (K<sup>3</sup> Anh. 294d)
**kern	**kern
*staff2	*staff2
*clefF4	*clefG2
*M2/4	*M2/4
*MM110	*MM110
*>[A,A1,A,A2,B]	*>[A,A1,A,A2,B]
*>norep[A,A2,B]	*>norep[A,A2,B]
*>A	*>A
=33	=33
4C	16cc
.	16c
.	16e
.	16g
4C	16cc
.	16ee
.	16gg
.	16ccc
=45	=45
16C	8gg
16D	.
16C	8ccc
16BB	.
16C	8gg
16D	.
16E	8ee
16C	.
=100	=100
4GG	16b
.	16a
.	16g
.	16a
4GG	16b
.	16cc
.	16dd
.	16b
=15	=15
4C	16cc
.	16ee
.	16gg
.	16ee
4C	8cc
.	8cc
=56	=56
8D	8dd
16F#	8dd
16A	.
16d	8ff#
16A	.
16F#	8ff#
16D	.
=156	=156
4G	8gg
.	4bb
4r	.
.	16gg
.	16dd
=168	=168
4C	8ee
.	4cc
4D	.
.	16a
.	16f#
=89	=89
*>A1	*>A1
4GG	4g 4b 4gg
16G	4r
16F	.
16E	.
16D	.
=89:|!	=89:|!
*>A2	*>A2
4GG	4g 4b 4gg
16GG	4r
16AA	.
16BB	.
16C#	.
=116||	=116||
*>B	*>B
8D	8dd
16C#	4ff#
16D	.
16Cn	.
16D	.
16C	8aa
16D	.
=124	=124
4G	8b
.	8d
4GG	8gg
.	8bb
=138	=138
16C	8gg
16E	.
16G	4ee
16E	.
16C	.
16E	.
16G	8cc
16E	.
=9	=9
4GG	8dd
.	8b
16G	4g
16F	.
16E	.
16D	.
=94	=94
16C	8cc
16E	.
16G	8ee
16E	.
16C	8gg
16E	.
16G	8ee
16E	.
=103	=103
4C	16gg
.	16ccc
.	16gg
.	16ff
4r	16ee
.	16cc
.	16ee
.	16gg
=96	=96
16G	8dd
16D	.
16BB	8dd
16GG	.
16G	8b
16D	.
16BB	8b
16GG	.
=146	=146
4C	4cc
4CC	4c
==	==
*-	*-
